!!!COM: Bach, Johann Sebastian
!!!OTL: 153. Alle Menschen muessen sterben
!!!ONM: No. 153
!!!OCL: Erk
!!!SCA: BWV 262
!!!YOE: Riemenschneider, Albert
!!!OPR: 371 Harmonized Chorales and 69 Chorale Melodies with Figured Bass
!!!OPT: Bach Chorale Harmonizations
**harm	**root	**kern	**kern	**kern	**kern
!	!	!bass	!tenor	!alto	!sprno
*Iorgan	*Iorgan	*Iorgan	*Iorgan	*Iorgan	*Iorgan
*>[A,A,B]	*>[A,A,B]	*>[A,A,B]	*>[A,A,B]	*>[A,A,B]	*>[A,A,B]
*>norep[A,B]	*>norep[A,B]	*>norep[A,B]	*>norep[A,B]	*>norep[A,B]	*>norep[A,B]
*>A	*>A	*>A	*>A	*>A	*>A
*k[f#c#g#d#]	*k[f#c#g#d#]	*k[f#c#g#d#]	*k[f#c#g#d#]	*k[f#c#g#d#]	*k[f#c#g#d#]
*E:	*E:	*E:	*E:	*E:	*E:
*met(c)	*met(c)	*met(c)	*met(c)	*met(c)	*met(c)
*M4/4	*M4/4	*M4/4	*M4/4	*M4/4	*M4/4
*MM60	*MM60	*MM60	*MM60	*MM60	*MM60
=1-	=1-	=1-	=1-	=1-	=1-
I	4DD	4E	4G#	4e	4b
vi	4BB	4C#	8G#	4e	4ee
.	.	.	8A	.	.
Ib	4DD	4GG#	4B	4e	4b
IV	4GG	4AA	8A	4e	4cc#
.	.	.	8G#	.	.
=2	=2	=2	=2	=2	=2
V	4AA	4BB	8F#	4e	4.b
.	.	.	8E	.	.
V	4AA	4BB	4F#	4d#	.
.	.	.	.	.	8a
I	4DD	4EE	4E	4e	4g#
I;	4DD;	4EE;	4E;	4e;	4g#;
=3	=3	=3	=3	=3	=3
I	4DD	4E	4G#	4e	4b
I	4DD	4E	4G#	8e	4b
.	.	.	.	8d#	.
ii	4EE	4F#	4A	8c#	4a
.	.	.	.	8d#	.
Ib	4DD	4G#	4B	[4e	4g#
=4	=4	=4	=4	=4	=4
ii7b	4EE	8A	4c#	4e]	4.f#
.	.	8F#	.	.	.
V	4AA	8B	8.B	4d#	.
.	.	8BB	.	.	8e
.	.	.	16A	.	.
I;	2DD;	2E;	2G#;	2e;	2e;
=5:|!	=5:|!	=5:|!	=5:|!	=5:|!	=5:|!
*>B	*>B	*>B	*>B	*>B	*>B
V	4AA	4BB	4B	4d#	4f#
V	4AA	4BB	4B	4d#	4f#
I	4DD	4E	4B	4e	8g#
.	.	.	.	.	8a#
iii	4FF#	8G#	4B	4d#	4b
.	.	8F#	.	.	.
=6	=6	=6	=6	=6	=6
!!linebreak: 2
vi7b	4BB	4E	4c#	4g#	4.b
V/V	4EE	4F#	4c#	8f#	.
.	.	.	.	8e	8a#
V	4AA	2BB;	4B	4d#	4b
V;	4AA;	.	4B;	4d#;	4b;
=7	=7	=7	=7	=7	=7
ii	2EE	2F#	4.A	8f#	4.cc#
.	.	.	.	8g#	.
.	.	.	.	4a	.
.	.	.	8B	.	8dd#
vi	4BB	8C#	[2c#	4g#	4ee
.	.	8D#	.	.	.
vib	4BB	8E	.	4g#	4ee
.	.	8F#	.	.	.
=8	=8	=8	=8	=8	=8
V/vi	2FF#	2G#	4c#]	4.g#	4.dd#
.	.	.	4B#	.	.
.	.	.	.	8f#	8dd#
vi	4BB	2C#;	2c#;	4e	4cc#
vi;	4BB;	.	.	4e;	4cc#;
=9	=9	=9	=9	=9	=9
I	4DD	4E	4B	4e	4g#
I	4DD	4E	4B	4e	4g#
IV	4GG	4AA	8A	4e	4cc#
.	.	.	8G#	.	.
V	4AA	4BB	4F#	4d#	4b
=10	=10	=10	=10	=10	=10
vi7	4BB	2C#	8E	4e	4b
.	.	.	8G#	.	.
V7c/V	4EE	.	8F#	4e	4a#
.	.	.	8E	.	.
V;	2AA;	2BB;	2F#;	2d#;	2b;
=11	=11	=11	=11	=11	=11
IV	4GG	4AA	4A	4e	4cc#
I	4DD	4E	4G#	8e	4b
.	.	.	.	8d#	.
ii	4EE	4F#	4A	8c#	4a
.	.	.	.	8d#	.
Ib	4DD	4G#	4B	4e	4g#
=12	=12	=12	=12	=12	=12
ii7b	4EE	8A	4c#	4e	4.f#
.	.	8F#	.	.	.
V	4AA	8B	8.B	4d#	.
.	.	8BB	.	.	8e
.	.	.	16A	.	.
I;	2DD;	2E;	2G#;	2e;	2e;
==	==	==	==	==	==
*-	*-	*-	*-	*-	*-
!!!CDT: 1685/3//-1750/7/28
!!!OCY: Deutschland
!!!AGN: chorale
!!!AST: Baroque
!!!AIN: vox
!!!YOY: 1941
!!!PPP: New York; London
!!!PPR: G. Schirmer
!!!ENC: David Huron
!!!EED: David Huron
!!!YEN: United States of America
!!!YER: 1992
!!!YEC: Copyright 1992 David Huron
!!!YEM: Rights to all derivative electronic formats reserved.
!!!YER: March 20, 1996
!!!AMT: simple quadruple
!!!EEV: 1.1
!!chor2scor: -l 2 -s 0.6 -o %b.pmx
